src/pos-icons/lightbulb-multiple-outline.svg

<svg height="24" viewBox="0 0 24 24" width="24" xmlns="http://www.w3.org/2000/svg"><path d="m12 21c0 .55.45 1 1 1h2c.55 0 1-.45 1-1v-1h-4m2-13c-2.76 0-5 2.24-5 5 0 1.57.74 3.06 2 4v2c0 .55.45 1 1 1h4c.55 0 1-.45 1-1v-2c2.21-1.66 2.66-4.79 1-7-.94-1.26-2.43-2-4-2m1 7.82v2.18h-2v-2.18c-1.56-.55-2.38-2.27-1.83-3.82.55-1.57 2.27-2.39 3.83-1.84 1.56.56 2.38 2.27 1.83 3.84-.3.85-.98 1.5-1.83 1.82m-7.32.18h-.68v1c0 .55.45 1 1 1h1v-.12c-.54-.55-1-1.18-1.32-1.88m5.92-10c-1.1-2.53-4.07-3.67-6.6-2.55s-3.66 4.05-2.55 6.59c.34.77.88 1.46 1.55 1.96v2c0 .55.45 1 1 1h.3c-.2-.65-.3-1.32-.3-2 0-3.71 2.89-6.79 6.6-7z"/></svg>

<?xml version="1.0" encoding="UTF-8"?><!DOCTYPE svg PUBLIC "-//W3C//DTD SVG 1.1//EN" "http://www.w3.org/Graphics/SVG/1.1/DTD/svg11.dtd"><svg xmlns="http://www.w3.org/2000/svg" xmlns:xlink="http://www.w3.org/1999/xlink" version="1.1" id="mdi-lightbulb-multiple-outline" width="24" height="24" viewBox="0 0 24 24"><path d="M12 21C12 21.55 12.45 22 13 22H15C15.55 22 16 21.55 16 21V20H12M14 7C11.24 7 9 9.24 9 12C9 13.57 9.74 15.06 11 16V18C11 18.55 11.45 19 12 19H16C16.55 19 17 18.55 17 18V16C19.21 14.34 19.66 11.21 18 9C17.06 7.74 15.57 7 14 7M15 14.82V17H13V14.82C11.44 14.27 10.62 12.55 11.17 11C11.72 9.43 13.44 8.61 15 9.16C16.56 9.72 17.38 11.43 16.83 13C16.53 13.85 15.85 14.5 15 14.82M7.68 15H7V16C7 16.55 7.45 17 8 17H9V16.88C8.46 16.33 8 15.7 7.68 15M13.6 5C12.5 2.47 9.53 1.33 7 2.45S3.34 6.5 4.45 9.04C4.79 9.81 5.33 10.5 6 11V13C6 13.55 6.45 14 7 14H7.3C7.1 13.35 7 12.68 7 12C7 8.29 9.89 5.21 13.6 5Z" /></svg>
